X:5
T:Willy of the Dale. JGi.005
S:Joshua Gibbons MS,1823,Tealby,Lincs.
M:6/8
L:1/8
Q:3/8=120
R:Jig
O:Tealby,Lincolnshire
Z:VMP/R.Greig, 2009
K:C
g|e2g d2g|ede c3G|A2d BAB|c3 zg|gec’ g2f|ede c2a|g2c d2e|fga g2f|efg GAB|
c3 zG|c2c cde|A2A A2B|c2d fed|c2B zg|gec’ g2f|ede c2a|g2c d2e|fga g2f|efg GAB|c3||

